!!!COM: Corelli, Arcangelo
!!!OTL: 
!!!ONM: Opus 5, No. 10
!!!OMV: 5
!!!CDT: 1653/2/17/-1713/1/8/
!!!OCY: Italia
**kern	**kern
*clefC	*clefG
*k[b-]	*k[b-]
*F:	*F:
*M2/4	*M2/4
4.r	3r
.	12r
8r	.
.	12cc
=1	=1
4F	6a
.	12f
4FF	6cc
.	12ff
=2	=2
4C	4ee
4AA	6ff
.	12cc
=3	=3
4BB-	6dd
.	12dd
4C	12cc
.	12dd
.	12b-
=4	=4
4F	4a
4A	6cc
.	12ff
=5	=5
4B-	6dd
.	12f
4BB-	6B-
.	12gg
=6	=6
4C	4ee
4AA	6ccc
.	12cc
=7	=7
4BB-	12dd
.	12ee
.	12ff
4C	12cc
.	12ff
.	12ee
=8	=8
4F	4ff
4f	12aa
.	12cc
.	12aa
=9	=9
4e	12gg
.	12cc
.	12gg
4d	4ff
=10	=10
4c	4ee
4B-	12dd
.	12f
.	12dd
=11	=11
4A	12cc
.	12f
.	12cc
4G	4b-
=12	=12
4F	4a
4E	12gg
.	12ee
.	12gg
=13	=13
4F	12aa
.	12ff
.	12aa
4G	12bb
.	12gg
.	12bb
=14	=14
4A	4ccc
4E	6gg
.	12g
=15	=15
4F	12f
.	12b
.	12cc
4G	6G
.	12b
=16	=16
4C	4c
4AA	6ff
.	12cc
=17	=17
4BB-	6dd
.	12dd
4C	12cc
.	12dd
.	12b-
=18	=18
4F	4a
4A	6ccc
.	12ff
=19	=19
4B-	6bb-
.	12aa
4B	12gg
.	12aa
.	12ff
=20	=20
4c	4ee
4A	12cc
.	12a
.	12cc
=21	=21
4B-	12dd
.	12b-
.	12dd
4c	12ee
.	12cc
.	12ee
=22	=22
4d	12ff
.	12dd
.	12ff
4e	12gg
.	12ee
.	12gg
=23	=23
4F	12aa
.	12ff
.	12aa
4G	12bb-
.	12gg
.	12bb-
=24	=24
4A	3ccc
4B-	.
.	12bb-
.	12aa
=25	=25
4c	12gg
.	12aa
.	12ff
4C	12cc
.	12ff
.	12ee
=26	=26
4F	[3ff
4AA	.
.	12ff]
.	12ee-
=27	=27
4BB-	12dd
.	12cc
.	12b-
4B-	12dd
.	12cc
.	12b-
=28	=28
4E	[3cc
4F	.
.	12cc]
.	12b-
=29	=29
4BB-	12a
.	12g
.	12f
4C	6c
.	12e
=30	=30
4F	4f
4B-	6r
.	12dd
=31	=31
4E	[3cc
4F	.
.	12cc]
.	12b-
=32	=32
4BB-	12a
.	12g
.	12f
4C	6c
.	12e
=33	=33
2FF	[3f
.	12f]
.	12cc
=34	=34
2f	6ff
.	12cc
.	6f
.	12ff
=35	=35
2e	6gg
.	12cc
.	6e
.	12gg
=36	=36
4f	6aa
.	12cc
4F	12f
.	12cc
.	12aa
=37	=37
2c	6gg
.	12cc
.	6r
.	12gg
=38	=38
4.F	6aa
.	12cc
.	12ff
.	12gg
8F	.
.	12aa
=39	=39
4G	12b
.	12aa
.	12gg
4E	12cc
.	12dd
.	12ee
=40	=40
4F	12f
.	12b
.	12cc
4G	6G
.	12b
=41	=41
4C	4c
4BB-	6r
.	12cc
=42	=42
2AA	12ff
.	12gg
.	12ee
.	12ff
.	12gg
.	12ee
=43	=43
2BB-	6dd
.	12f
.	6B-
.	12dd
=44	=44
2BB	12gg
.	12aa
.	12ff
.	12gg
.	12aa
.	12ff
=45	=45
2C	6ee
.	12g
.	6c
.	12gg
=46	=46
4A	6ccc
.	12ff
4G	6bb-
.	12ee
=47	=47
4F	6aa
.	12dd
4E	12gg
.	12aa
.	12bb-
=48	=48
8F	12aa
.	12gg
8G	.
.	12ff
8A	12a
.	12dd
8AA	.
.	12cc#
=49	=49
4D	4d
4C	6r
.	12dd
=50	=50
2BB	6gg
.	12dd
.	6b
.	12gg
=51	=51
2C	6ee
.	12g
.	6c
.	12gg
=52	=52
2E	6ccc
.	12gg
.	6ee
.	12ccc
=53	=53
2F	6aa
.	12cc
.	6f
.	12aa
=54	=54
2E	6gg
.	12cc
.	6e
.	12gg
=55	=55
2D	6ff
.	12b-
.	6d
.	12ff
=56	=56
4C	6ee
.	12c
4AA	12ff
.	12gg
.	12aa
=57	=57
4BB-	12dd
.	12ee
.	12ff
4C	12cc
.	12ff
.	12ee
=58	=58
2F	4ff
.	6a
.	12dd
=59	=59
4C	12e
.	12dd
.	12cc
4GG	12d
.	12cc
.	12b-
=60	=60
4AA	6c
.	12a
8r	6B-
8BB-	.
.	12g
=61	=61
8C	12A
.	12g
8BB-	.
.	12f
4C	12c
.	12f
.	12e
=62	=62
2F	4f
.	6a
.	12dd
=63	=63
4C	12e
.	12dd
.	12cc
4GG	12d
.	12cc
.	12b-
=64	=64
4AA	12c
.	12e
.	12a
8r	12B-
.	12d
8BB-	.
.	12g
=65	=65
8C	12A
.	12g
8BB-	.
.	12f
4C	12c
.	12f
.	12e
=66	=66
2FF	[3f
.	12f]
.	12r
==	==
*-	*-
!!!RWG: This file only contains pitch and duration data.
!!!RWG: Transposing instruments are not transposed.
!!!RWG: Durations of rests and tied notes may be interpreted.
!!!RWG: Key is interpreted using the Humdrum key tool.
!!!SCA: 
!!!YOR: 
!!!AGN: violin
!!!AFT: stage1
!!!ENC: F. Bennion
!!!END: 1997/04/15
!!!AST: baroque
!!!YEC: Copyright 1994, Center for Computer Assisted Research in the Humanities
!!!YEM: Rights to all derivative electronic formats reserved.
!!!YEM: Refer to licensing agreement for further details.
!!!YEN: United States of America
!!!EED: W.B. Hewlett
!!!KEY: 1818864763
!!!EMD: Converted from MuseData to Humdrum Aug 9, 1999, by Bret Aarden using muse2kern.
!!!VTS: 1549241588
